public/assets/isolate1.svg

<svg width="126" height="80" viewBox="0 0 126 80" fill="none" xmlns="http://www.w3.org/2000/svg">
<path d="M38.9834 24.3781H1.2749L21.1779 1H101.907L118.886 22.641" stroke="#201F3B" stroke-width="1.5" stroke-miterlimit="10" stroke-linecap="round" stroke-linejoin="round"/>
<path d="M3.31055 24.396V70.1028H40.6516" stroke="#201F3B" stroke-width="1.5" stroke-miterlimit="10" stroke-linecap="round" stroke-linejoin="round"/>
<path d="M119.881 27.4179V75.6217H110.695V43.7391H50.5422V75.6217H40.5601V27.4179L80.2282 8.63574L119.881 27.4179Z" fill="url(#paint0_linear_57_428)"/>
<path d="M123.663 28.0512L80.2289 7.4596L36.7792 28.0512L34.8501 26.3503L80.3207 4.54639L125.592 25.7532L123.663 28.0512Z" fill="#201F3B"/>
<path d="M123.563 29.0511L80.2718 8.54524L80.229 8.52497L80.1862 8.54524L36.8793 29.0511V28.1143L80.229 7.57014L123.563 28.1143V29.0511Z" stroke="#201F3B" stroke-width="0.2"/>
<path d="M40.5609 33.2263L39.8566 33.172L36.7793 29.2093L40.5609 27.418V33.2263Z" fill="#201F3B"/>
<path d="M119.882 31.435L123.679 29.1912L119.882 27.418V31.435Z" fill="#201F3B"/>
<path d="M96.4778 57.4624C95.9696 56.6162 94.3 51.5395 91.5778 48.6742C90.0533 47.0589 69.7273 47.0204 68.3118 48.6742C65.644 51.7895 64.2466 55.3278 63.4118 57.4624C62.7221 58.8085 60.8529 60.8661 60.0181 62.4045C60.127 64.1929 59.9999 72.0003 60.5081 74.0579C60.6351 74.5579 60.9255 75.904 61.4155 75.904C66.5333 75.8655 89.0552 75.7886 97.3489 76.4232C97.9296 76.4617 98.71 75.2117 98.9459 74.654C99.7445 72.8656 99.5085 66.2697 99.6356 62.6352C98.9278 61.0776 97.1311 58.7123 96.4778 57.4624Z" stroke="#201F3B" stroke-width="0.9" stroke-miterlimit="10" stroke-linecap="round" stroke-linejoin="round"/>
<path d="M68.8974 49.9742C68.9564 49.9742 69.0141 49.9568 69.0633 49.9241L69.0629 49.9244L69.0622 49.9249L69.0614 49.9254C69.0611 49.9256 69.0614 49.9254 69.0622 49.9249L69.0736 49.9181C69.0857 49.911 69.1071 49.8991 69.1389 49.8829C69.2025 49.8505 69.3079 49.8012 69.4646 49.7405C69.7781 49.6192 70.2959 49.4527 71.0937 49.2847C72.6902 48.9486 75.4007 48.6081 79.8263 48.6081C84.252 48.6081 86.9625 48.9486 88.5589 49.2847C89.3568 49.4527 89.8746 49.6192 90.1881 49.7405C90.3448 49.8012 90.4501 49.8505 90.5138 49.8829C90.5456 49.8991 90.567 49.911 90.5791 49.9181L90.5905 49.9249L90.5898 49.9244L90.5894 49.9242C90.59 49.9246 90.5906 49.9249 90.5911 49.9253C90.6399 49.9572 90.697 49.9742 90.7553 49.9742C90.9726 49.9742 91.1789 50.1075 91.2796 50.3344C91.2831 50.3422 91.2869 50.3499 91.291 50.3574L94.3041 55.829C94.5019 56.2616 94.1841 56.7201 93.7914 56.7201H66.0065C65.6012 56.7201 65.2902 56.2643 65.4786 55.8233L68.3642 50.3526C68.3674 50.3467 68.3703 50.3406 68.373 50.3344C68.4738 50.1075 68.6801 49.9742 68.8974 49.9742Z" stroke="#201F3B" stroke-width="0.6" stroke-miterlimit="10" stroke-linecap="round" stroke-linejoin="round"/>
<path d="M69.6008 66.1349C69.6008 66.1349 62.2871 65.5388 61.7245 65.0388C61.2163 64.5965 61.4341 62.6543 61.9786 62.2889C62.6137 61.8658 68.6389 63.4812 68.6389 63.4812L69.6008 66.1349Z" stroke="#201F3B" stroke-width="0.6" stroke-miterlimit="10" stroke-linecap="round" stroke-linejoin="round"/>
<path d="M90.3076 66.5197C90.3076 66.5197 97.6213 65.9236 98.1839 65.4236C98.6921 64.9813 98.4743 63.039 97.9299 62.6737C97.2947 62.2506 91.2695 63.8659 91.2695 63.8659L90.3076 66.5197Z" stroke="#201F3B" stroke-width="0.6" stroke-miterlimit="10" stroke-linecap="round" stroke-linejoin="round"/>
<path d="M94.4448 76.2888V78.2695C94.4448 78.6734 94.7533 79.0003 95.1345 79.0003H98.6552C99.0363 79.0003 99.3448 78.6734 99.3448 78.2695V73.0005" stroke="#201F3B" stroke-width="0.6" stroke-miterlimit="10" stroke-linecap="round" stroke-linejoin="round"/>
<path d="M65.2623 75.9039V78.2692C65.2623 78.673 64.9538 79 64.5727 79H61.0519C60.6708 79 60.3623 78.673 60.3623 78.2692V73.3848" stroke="#201F3B" stroke-width="0.6" stroke-miterlimit="10" stroke-linecap="round" stroke-linejoin="round"/>
<path d="M63.9922 56.0202L63.847 54.9626C63.847 54.9626 63.4114 54.5972 63.1392 54.578C62.867 54.5395 61.2336 54.7895 60.6529 55.6164C60.4714 55.8856 60.544 56.8087 61.2699 57.4433C61.397 57.5586 62.9033 57.8086 63.3207 57.6356L63.9922 56.0202Z" stroke="#201F3B" stroke-width="0.6" stroke-miterlimit="10" stroke-linecap="round" stroke-linejoin="round"/>
<path d="M96.0962 56.3664L96.2414 55.3088C96.2414 55.3088 96.6769 54.9434 96.9491 54.9242C97.2214 54.8857 98.8547 55.1357 99.4354 55.9626C99.6169 56.2318 99.5443 57.1549 98.8184 57.7895C98.6914 57.9048 97.1851 58.1548 96.7677 57.9818L96.0962 56.3664Z" stroke="#201F3B" stroke-width="0.6" stroke-miterlimit="10" stroke-linecap="round" stroke-linejoin="round"/>
<path d="M86.932 68.4428H73.212C72.4679 68.4428 71.8146 67.9621 71.5424 67.2313L70.399 64.116C70.2901 63.8084 70.5079 63.4814 70.8164 63.4814H89.3276C89.6361 63.4814 89.8539 63.8084 89.745 64.116L88.6017 67.2313C88.3294 67.9621 87.6761 68.4428 86.932 68.4428Z" stroke="#201F3B" stroke-width="0.6" stroke-miterlimit="10" stroke-linecap="round" stroke-linejoin="round"/>
<defs>
<linearGradient id="paint0_linear_57_428" x1="80.2208" y1="88.2321" x2="80.2208" y2="-3.31026" gradientUnits="userSpaceOnUse">
<stop stop-color="#28C985"/>
<stop offset="1" stop-color="#18808A"/>
</linearGradient>
</defs>
</svg>

<svg width="126" height="80" fill="none" xmlns="http://www.w3.org/2000/svg"><path d="M38.983 24.378H1.275L21.178 1h80.729l16.979 21.641M3.31 24.396v45.707h37.342" stroke="#201F3B" stroke-width="1.5" stroke-miterlimit="10" stroke-linecap="round" stroke-linejoin="round"/><path d="M119.881 27.418v48.204h-9.186V43.739H50.542v31.883H40.56V27.418L80.228 8.636l39.653 18.782z" fill="url(#a)"/><path d="M123.663 28.051 80.229 7.46 36.779 28.05l-1.929-1.7L80.32 4.545l45.272 21.207-1.929 2.298z" fill="#201F3B"/><path d="M123.563 29.051 80.272 8.545l-.043-.02-.043.02L36.88 29.051v-.937L80.23 7.57l43.334 20.544v.937z" stroke="#201F3B" stroke-width=".2"/><path d="m40.56 33.226-.703-.054-3.078-3.963 3.782-1.791v5.808zM119.882 31.435l3.797-2.244-3.797-1.773v4.017z" fill="#201F3B"/><path d="M96.478 57.462c-.508-.846-2.178-5.923-4.9-8.788-1.525-1.615-21.85-1.654-23.266 0-2.668 3.115-4.065 6.654-4.9 8.788-.69 1.346-2.56 3.404-3.394 4.942.109 1.789-.018 9.596.49 11.654.127.5.417 1.846.907 1.846 5.118-.038 27.64-.115 35.934.52.58.038 1.361-1.212 1.597-1.77.799-1.788.563-8.384.69-12.019-.708-1.557-2.505-3.923-3.158-5.173z" stroke="#201F3B" stroke-width=".9" stroke-miterlimit="10" stroke-linecap="round" stroke-linejoin="round"/><path d="M68.897 49.974a.3.3 0 0 0 .166-.05h0l-.002.001h.001l.012-.007a3.554 3.554 0 0 1 .391-.178c.313-.12.83-.287 1.629-.455 1.596-.336 4.307-.677 8.732-.677 4.426 0 7.137.34 8.733.677.798.168 1.316.334 1.63.456a3.567 3.567 0 0 1 .39.177l.012.007h-.001.001a.3.3 0 0 0 .164.05.58.58 0 0 1 .536.382l3.013 5.472c.198.433-.12.891-.513.891H66.007c-.406 0-.717-.456-.528-.897l2.885-5.47a.58.58 0 0 1 .533-.378zM69.6 66.135s-7.313-.596-7.875-1.096c-.509-.442-.29-2.385.254-2.75.635-.423 6.66 1.192 6.66 1.192l.962 2.654zM90.308 66.52s7.313-.596 7.876-1.096c.508-.443.29-2.385-.254-2.75-.635-.423-6.66 1.192-6.66 1.192l-.962 2.654zM94.445 76.289v1.98c0 .404.308.731.69.731h3.52c.381 0 .69-.327.69-.73V73M65.262 75.904v2.365c0 .404-.308.731-.69.731h-3.52c-.381 0-.69-.327-.69-.73v-4.885M63.992 56.02l-.145-1.057s-.436-.366-.708-.385c-.272-.039-1.905.211-2.486 1.038-.182.27-.109 1.193.617 1.827.127.116 1.633.366 2.05.193l.672-1.616zM96.096 56.366l.145-1.057s.436-.366.708-.385c.272-.038 1.906.212 2.486 1.039.182.269.11 1.192-.617 1.826-.127.116-1.633.366-2.05.193l-.672-1.616zM86.932 68.443h-13.72c-.744 0-1.397-.48-1.67-1.212L70.4 64.116c-.109-.308.109-.635.417-.635h18.512c.308 0 .526.327.417.635l-1.143 3.115c-.273.731-.926 1.212-1.67 1.212z" stroke="#201F3B" stroke-width=".6" stroke-miterlimit="10" stroke-linecap="round" stroke-linejoin="round"/><defs><linearGradient id="a" x1="80.221" y1="88.232" x2="80.221" y2="-3.31" gradientUnits="userSpaceOnUse"><stop stop-color="#28C985"/><stop offset="1" stop-color="#18808A"/></linearGradient></defs></svg>
